!!!COM: Grieg, Edvard
!!!CDT: 1843/06/15/-1907/09/04/
!!!OPR@@NO: Norske folkviser og dandse
!!!OPR@EN: Norwegian Folksongs and Dances
!!!OPR@DE: Nordische T&auml;nze und Volksweisen
!!!OPS: Op. 17
!!!ONM: No. 1
!!!OTL@@NO: Springar
!!!OTL@EN: Spring Dance
!!!OTL@DE: Springtanz
!!!ODT: 1869///
!!!OMD: Allegro marcato
**kern	**kern	**dynam
*staff2	*staff1	*staff1/2
*clefG2	*clefG2	*clefG2
*k[]	*k[]	*k[]
*C:	*C:	*C:
*M3/4	*M3/4	*M3/4
*MM144	*MM144	*MM144
=1-	=1-	=1-
2c^/ 2g^/	2.r	.
4c'/ 4g'/	.	.
=2	=2	=2
2c^/ 2g^/	2.r	.
4c'/ 4g'/	.	.
=3	=3	=3
2c/ 2g/	12cc\L	mf
.	12ee\	.
.	12ff#\J	.
.	4gg\	.
4c/ 4g/	8aa\L	.
.	8gg\J	.
=4	=4	=4
2c/ 2g/	32ffn\LLL	.
.	32gg\JJ	.
.	8.ff\J	.
.	4dd\	.
4c/ 4g/	8b\L	.
.	8dd\J	.
=5	=5	=5
2c/ 2g/	4ee'\	.
.	2cc^\	.
4c/ 4g/	.	.
=6	=6	=6
2c/ 2g/	4ee'\	.
.	32ee\LLL	.
.	32ff\JJ	.
.	8.ee\J	.
4c/ 4g/	8cc\L	.
.	8ee\J	.
=7	=7	=7
2c/ 2g/	4dd'\	.
.	32dd\LLL	.
.	32ee\JJ	.
.	8.dd\J	.
4c/ 4g/	8b\L	.
.	8dd\J	.
=8	=8	=8
2c/ 2g/	8cc\L	.
.	8b\	.
.	8a\	.
.	8g\	.
4c/ 4g/	8b\	.
.	8dd\J	.
=9	=9	=9
2c/ 2g/	4cc\	.
.	(8g/L	.
.	8f/	.
4c/ 4g/	8e/	.
.	8d/J	.
=10	=10	=10
2c/ 2g/	4ee'\)	.
.	32ee\LLL	.
.	32ff\JJ	.
.	8.ee\J	.
4c/ 4g/	(8cc\L	.
.	8ee\J	.
=11	=11	=11
2c/ 2g/	4dd'\)	.
.	32dd\LLL	.
.	32ee\JJ	.
.	8.dd\J	.
4c/ 4g/	8b\L	.
.	8dd\J	.
=12	=12	=12
2c/ 2g/	8cc\L	.
.	8b\	.
.	8a\	.
.	8g\	.
4c/ 4g/	8b\	.
.	8dd\J	.
=13	=13	=13
2c/ 2g/	4cc'\	.
.	2cc\	.
4c/ 4g/	.	.
*clefF4	*	*
=14	=14	=14
4C/	12cc\L	.
.	12ee\	.
.	12ff#\J	.
4G\ 4e\	4gg\	.
4C/	8aa\L	.
.	8gg\J	.
=15	=15	=15
4G\ 4f\	32ffn\LLL	.
.	32gg\JJ	.
.	8.ff\J	.
4C/	4dd\	.
4G\ 4f\	8b\L	.
.	8dd\J	.
=16	=16	=16
4C/	4ee'\	.
4G\ 4e\	2cc^\	.
4C/	.	.
=17	=17	=17
4c^\ 4a^\	4ee'\	.
4C/	32ee\LLL	.
.	32ff\JJ	.
.	8.ee\J	.
4B^\ 4g^\	8cc\L	.
.	8ee\J	.
=18	=18	=18
4C/	4dd'\	.
4A^\ 4f^\	32dd\LLL	.
.	32ee\JJ	.
.	8.dd\J	.
4C/	8b\L	.
.	8dd\J	.
=19	=19	=19
4G^\ 4e^\	8cc\L	.
.	8b\	.
4C/	8a\	.
.	8g\	.
4F^\ 4d^\	8b\	.
.	8dd\J	.
=20	=20	=20
4C/	4cc\	.
4E^\ 4c^\	(8g/L	.
.	8f/	.
4BB/	8e/	.
.	8d/J	.
=21	=21	=21
4E\ 4c\	4ee'\)	<
4AA/	32ee\LLL	.
.	32ff\JJ	.
.	8.ee\J	.
4F\ 4c\	(8cc\L	.
.	8ee\J	.
=22	=22	=22
4AA/	4dd'\)	f
4F#\ 4c\	32dd\LLL	.
.	32ee\JJ	.
.	8.dd\J	.
4DD/	8b\L	.
.	(8dd\J	.
=23	=23	=23
4c\ 4fn\	8cc\L	.
.	8b\	>
4GG/	8a\	.
.	8g\	.
4B\ 4f\	8b\	.
.	8dd\J	.
=24	=24	=24
4C/	4cc'\)	p
4A\ [4c\ 4f\	2cc^\	.
4G\ 4c\] 4e\	.	.
=25	=25	=25
8C\L	12cc\L	pp
.	12ee\	.
8G\	.	.
.	12ff#\J	.
8c\	4gg\	.
8d\	.	.
8e\	8aa\L	.
8c\J	8gg\J	.
=26	=26	=26
8d\L	32ffn\LLL	.
.	32gg\JJ	.
.	8.ff\J	.
8c\	.	.
8f\	4dd\	.
8c\	.	.
8d\	8b\L	.
8c\J	8dd\J	.
=27	=27	=27
8g\L	4ee'\	.
8c\	.	.
8e\	2cc^\	.
8c\	.	.
8g\	.	.
8c\J	.	.
*clefG2	*	*
=28	=28	=28
*^	*	*
4cc\	8cc/L	4ee'\	.
.	8c/	.	.
4b\	8b/	32ee\LLL	.
.	.	32ff\JJ	.
.	.	8.ee\J	.
.	8c/	.	.
4b-\	8b-/	8cc\L	.
.	8c/J	8ee\J	.
=29	=29	=29	=29
4a\	8a/L	4dd'\	.
.	8c/	.	.
4a-\	8a-/	32dd\LLL	.
.	.	32ee\JJ	.
.	.	8.dd\J	.
.	8c/	.	.
4g\	8g/	8b\L	.
.	8c/J	8dd\J	.
=30	=30	=30	=30
4f#\	8f#/L	8cc\L	.
.	8c/	8b\	.
4fn\	8fn/	8a\	.
.	8c/	8g\	.
4d\	8d/	8b\	.
.	8c/J	8dd\J	.
=31	=31	=31	=31
4e\	8e/L	4cc\	<
.	8c/	.	.
4B\	8B/	(8g/L	.
.	8c/	8f/	.
4B-\	8B-/	8e/	.
.	8c/J	8d/J	.
*v	*v	*	*
*clefF4	*	*
=32	=32	=32
*^	*	*
8A\L	4A/	4ee'\)	.
8c\	.	.	.
8A-\	4A-/	32ee\LLL	.
.	.	32ff\JJ	.
.	.	8.ee\J	.
8c\	.	.	.
8G\	4G/	(8cc\L	>
8c\J	.	8ee\J	.
=33	=33	=33	=33
8F#\L	4F#/	4dd'\)	.
8c\	.	.	.
8F#\	4F#/	32dd\LLL	.
.	.	32ee\JJ	.
.	.	8.dd\J	.
8D\	.	.	.
8F#\	4F#/	(8b\L	.
8c\J	.	8dd\J	.
=34	=34	=34	=34
4Fn/	8Fn\L	8cc\L	.
.	8B\	8b\	.
4F/	8F\	8a\	.
.	8GG\	8g\	.
4F/	8F\	8b\	.
.	8B\J	8dd\J	.
=35	=35	=35	=35
8E\L	4E/	4cc'\)	.
8c\	.	.	.
8E\	4E/	2cc^\	.
8C\	.	.	.
8E\	4E/	.	.
8c\J	.	.	.
*v	*v	*	*
=36	=36	=36
*	*^	*
4CC/ 4GG/	4r	12cc\L	ff
.	.	12ee\	.
.	.	12ff#\J	.
4E'\ 4G'\ 4c'\	4gg/	4cc\	.
4r	8aa/L	4ee\	.
.	8gg/J	.	.
=37	=37	=37	=37
4CC/ 4GG/	4r	32ffn\LLL	.
.	.	32gg\JJ	.
.	.	8.ff\J	.
4F'\ 4G'\ 4B'\ 4d'\	4dd/	4b\	.
4r	4dd/	8g\L	.
.	.	8b\J	.
=38	=38	=38	=38
4CC'/ 4GG'/	4r	4cc\ 4ee\	.
4E'\ 4G'\ 4c'\	2cc/	4g\	.
4r	.	4c\ 4g\	.
=39	=39	=39	=39
4AA'/ 4E'/	4ee/	4r	.
4A'\ 4c'\ 4e'\	32ee/LLL	4a\	.
.	32ff/JJ	.	.
.	8.ee/J	.	.
4r	8cc/L	4gv\	.
.	8ee/J	.	.
=40	=40	=40	=40
4AA/ 4E/	4dd/	4r	.
4G#'\ 4B'\ 4d'\	32dd/LLL	4f\	.
.	32ee/JJ	.	.
.	8.dd/J	.	.
4r	8b/L	4e\	.
.	8dd/J	.	.
=41	=41	=41	=41
*^	*	*	*
4AA'/ 4E'/	4r	4.r	8cc\L	.
.	.	.	8b\	.
4C/	(2FF\	.	8a\	.
.	.	4.g/	8g\	.
4BB/	.	.	8b\	.
.	.	.	8dd\J	.
*v	*v	*	*	*
*	*v	*v	*
=42	=42	=42
4EE/) 4C/	4g/ 4cc/	.
8C#\ 8G\L	8B/ 8g/L	.
8D\ 8G\	8B/ 8f/	.
8E\ 8G\	8B/ 8e/	.
8F\ 8G\J	8B/ 8d/J	.
=43	=43	=43
*	*^	*
4CCn/ 4Cn/	4ee/	4r	.
4G\ 4c\ 4e\	32ee/LLL	4g\ 4cc\	.
.	32ff/JJ	.	.
.	8.ee/J	.	.
4BBB-/ 4BB-/	(8cc/L	4g\	.
.	8ee/J	.	.
=44	=44	=44	=44
4AAA/ 4AA/	4dd/)	4r	.
4F#\ 4c\ 4d\	32dd/LLL	4f#\ 4cc\	.
.	32ee/JJ	.	.
.	8.dd/J	.	.
4DD/ 4D/	8b/L	4f#\	.
.	8dd/J	.	.
*	*v	*v	*
=45	=45	=45
4GGG/ 4GG/	8fn/ (8cc/L	.
.	8f/ 8b/)	.
8D'\ 8Fn'\ 8c'\L	8f'/ 8a'/	.
8D'\ 8F'\ 8B'\	8f'/ 8g'/	.
8D'\ 8F'\ 8A'\	8f'/ 8b'/	.
8D'\ 8F'\ 8B'\J	8f'/ 8dd'/J	.
=46	=46	=46
*^	*^	*
4E/ 4G/ 4c/	4CC\ 4GG\ 4C\	4r	4r	f
4r	4r	4ee/ 4gg/ 4ccc/	4e\ 4g\ 4cc\	.
4r	4r	4r	4r	.
*v	*v	*	*	*
*	*v	*v	*
==	==	==
*-	*-	*-
!!!ENC: Craig Stuart Sapp
!!!END: 2008/07/11/
